!!!OTL: DIE MAENNER SIND VERAENDERLICH
!!!ARE: Europa, Mitteleuropa, Deutschland
!!!SCT: F0170
!!!YEM: Copyright 1995, estate of Helmut Schaffrath.
**kern
*ICvox
*Ivox
*M2/4
*k[f#c#g#]
*A:
{8ee
=1
8ee
8ff#
8dd
8ee
=2
8cc#
8dd
8b}
{8cc#
=3
8a
8a
8b
8b
=4
4e
8r}
{8e
=5
8f#
8g#
8a
8b
=6
8cc#
8dd
8ee}
{8ee
=7
8dd#
8ff#
8b
8dd#
=8
4ee
8r}
{8e
=9
8g#
8g#
8r
8g#
=10
8b
8b
8r
8b
=11
8dd
8dd
8r}
{8ee
=12
4cc#
4b
=13
4a
4r
=14
4ff#
8ee
8g#
=15
4a
8r}
==
!!!AGN: Liebes - Lied, Spott, Moral
!!!ONB: ESAC (Essen Associative Code) Database: FINK
!!!AMT: simple duple
!!!AIN: vox
!!!EED: Helmut Schaffrath
!!!EEV: 1.0
*-
